X:892
T:Retreat JBut.887, A
M:3/4
L:1/8
Q:3/4=40
N: NB1 - E2 E/G/F/A/ in Mss
N: NB2 - E D4 in Mss
Z:Village Music Project, Steve Mansfield, 2019
B:John Buttrey MS, poss. Lincolnshire, early 19thC
S:https://buttreymilitarysocialtunes1800.wordpress.com/
K:D
A2 F/G/F/G/ AA | A2B2A2 | B2B/d/c/d/ e/d/c/B/ | B3cA2 |
G2 GEDC | A2 AFFD | E>F G2F2 | A/G/F/G/ E4 :|
|: A2 A>d f/d/A/F/ | G2 G>c e/c/G/E/ | F/D/F/A/ dAGF | F2 A/G/F/G/ E2 |
D2 DFDF | "NB1" E2 EGFA | d/B/A/G/ F2E2 | "NB2" ED-D4 :|

